X:1
T:[ID 11-27b]
T:[ID 11-27b]
T:Bezeichnung standardisiert: Anglaise No. 2 Angl
T:Urheber unbekannt Datum in der hier transkribierten schriftlichen Quelle: vermutlich um 1800
C:Urheber unbekannt
C:Datum in der hier transkribierten schriftlichen Quelle: vermutlich um 1800
L:1/8
M:3/8
K:C
V:1 treble 
V:1
 G | ce/c/e/c/ | Gc/G/c/G/ | EG/E/G/E/ | C2 G | GFF | F2 B | cc/B/c/B/ | c2 :: g/a/g/^f/g/f/ | %10
 g/f/g/f/g | e/f/a/f/e/d/ | cBG | GFF | F2 B | cc/B/c/B/ | c2"^1)" :: x3 | G | (GF).E | EFG | %21
 ^GAA | A2 G | GFF | FEE | EDD | D2 G | GFE | EFG | ^GAA | A2 G | GFE | EGc | d2 B | c2 :| %35

